img/lennard-jones.svg

<svg height="43.2303" viewBox="0 0 160.05 32.4227" width="213.4" xmlns="http://www.w3.org/2000/svg" xmlns:xlink="http://www.w3.org/1999/xlink"><defs><path d="M6.096-4.524c.156 0 .552 0 .552-.384 0-.264-.228-.264-.444-.264H3.552c-1.8 0-3.096 2.004-3.096 3.42 0 1.02.66 1.872 1.74 1.872C3.612.12 5.16-1.404 5.16-3.204c0-.468-.108-.924-.396-1.32h1.332zM2.208-.12c-.612 0-1.056-.468-1.056-1.296 0-.72.432-3.108 2.196-3.108.516 0 1.092.252 1.092 1.176 0 .42-.192 1.428-.612 2.124-.432.708-1.08 1.104-1.62 1.104z" id="j"/><path d="M1.668-2.736c.384.156.792.156 1.02.156.312 0 .936 0 .936-.348 0-.216-.228-.3-.84-.3-.3 0-.66.036-1.08.216-.372-.18-.516-.456-.516-.72 0-.744 1.176-1.176 2.244-1.176.204 0 .636 0 1.14.372.072.048.108.084.192.084.144 0 .3-.156.3-.3 0-.216-.696-.672-1.524-.672-1.344 0-2.616.804-2.616 1.692 0 .444.288.72.492.864C.72-2.472.312-1.824.312-1.236c0 .828.744 1.488 1.896 1.488 1.584 0 2.22-1.056 2.22-1.224 0-.06-.048-.108-.108-.108s-.084.036-.132.108c-.132.228-.444.708-1.872.708-.744 0-1.728-.192-1.728-1.044 0-.408.3-1.02 1.08-1.428zm.372-.144c.324-.108.636-.108.72-.108.336 0 .396.024.588.072-.204.096-.228.096-.66.096-.216 0-.408 0-.648-.06z" id="g"/><path d="M7.428-6.864c.408-.648.78-.936 1.392-.984.12-.012.216-.012.216-.228 0-.048-.024-.12-.132-.12-.216 0-.732.024-.948.024-.348 0-.708-.024-1.044-.024-.096 0-.216 0-.216.228 0 .108.108.12.156.12.444.036.492.252.492.396 0 .18-.168.456-.18.468L3.396-1.008l-.84-6.468c0-.348.624-.372.756-.372.18 0 .288 0 .288-.228 0-.12-.132-.12-.168-.12-.204 0-.444.024-.648.024h-.672c-.876 0-1.236-.024-1.248-.024-.072 0-.216 0-.216.216 0 .132.084.132.276.132.612 0 .648.108.684.408l.96 7.404c.036.252.036.288.204.288.144 0 .204-.036.324-.228l4.332-6.888z" id="a"/><path d="M4.668-4.908c-.372.072-.564.336-.564.6 0 .288.228.384.396.384.336 0 .612-.288.612-.648 0-.384-.372-.72-.972-.72-.48 0-1.032.216-1.536.948-.084-.636-.564-.948-1.044-.948-.468 0-.708.36-.852.624-.204.432-.384 1.152-.384 1.212 0 .048.048.108.132.108.096 0 .108-.012.18-.288.18-.72.408-1.416.888-1.416.288 0 .372.204.372.552 0 .264-.12.732-.204 1.104L1.356-2.1c-.048.228-.18.768-.24.984C1.032-.804.9-.24.9-.18c0 .168.132.3.312.3.132 0 .36-.084.432-.324.036-.096.48-1.908.552-2.184.06-.264.132-.516.192-.78.048-.168.096-.36.132-.516.036-.108.36-.696.66-.96.144-.132.456-.408.948-.408.192 0 .384.036.54.144z" id="c"/><path d="M3.9 2.916c0-.036 0-.06-.204-.264-1.2-1.212-1.872-3.192-1.872-5.64 0-2.328.564-4.332 1.956-5.748.12-.108.12-.132.12-.168C3.9-8.976 3.84-9 3.792-9c-.156 0-1.14.864-1.728 2.04-.612 1.212-.888 2.496-.888 3.972 0 1.068.168 2.496.792 3.78.708 1.44 1.692 2.22 1.824 2.22.048 0 .108-.024.108-.096z" id="b"/><path d="M3.384-2.988c0-.912-.12-2.4-.792-3.792C1.884-8.22.9-9 .768-9 .72-9 .66-8.976.66-8.904c0 .036 0 .06.204.264C2.064-7.428 2.736-5.448 2.736-3c0 2.328-.564 4.332-1.956 5.748-.12.108-.12.132-.12.168 0 .072.06.096.108.096.156 0 1.14-.864 1.728-2.04.612-1.224.888-2.52.888-3.96z" id="d"/><path d="M4.332-7.812c0-.228 0-.288-.168-.288-.096 0-.132 0-.228.144L.324-2.352v.348H3.48v1.092c0 .444-.024.564-.9.564h-.24V0c.276-.024 1.224-.024 1.56-.024s1.296 0 1.572.024v-.348h-.24c-.864 0-.9-.12-.9-.564v-1.092h1.212v-.348H4.332v-5.46zm-.792.936v4.524H.624L3.54-6.876z" id="f"/><path d="M8.1-3.888c.168 0 .384 0 .384-.216 0-.228-.204-.228-.384-.228H1.032c-.168 0-.384 0-.384.216 0 .228.204.228.384.228H8.1zm0 2.232c.168 0 .384 0 .384-.216 0-.228-.204-.228-.384-.228H1.032c-.168 0-.384 0-.384.216 0 .228.204.228.384.228H8.1z" id="e"/><path d="M6.18 20.976c.024.012.132.132.144.132h.264c.036 0 .132-.012.132-.12 0-.048-.024-.072-.048-.108-.432-.432-1.08-1.092-1.824-2.412-1.296-2.304-1.776-5.268-1.776-8.148 0-5.328 1.512-8.46 3.612-10.584.036-.036.036-.072.036-.096 0-.12-.084-.12-.228-.12-.156 0-.18 0-.288.096C5.064.6 3.78 2.268 2.952 4.8c-.516 1.584-.792 3.516-.792 5.508 0 2.844.516 6.06 2.4 8.844.324.468.768.96.768.972.12.144.288.336.384.42l.468.432z" id="i"/><path d="M4.992 10.308c0-3.444-.804-7.104-3.168-9.804-.168-.192-.612-.66-.9-.912C.84-.48.816-.48.66-.48c-.12 0-.228 0-.228.12 0 .048.048.096.072.12.408.42 1.056 1.08 1.8 2.4C3.6 4.464 4.08 7.428 4.08 10.308c0 5.208-1.44 8.388-3.6 10.584-.024.024-.048.06-.048.096 0 .12.108.12.228.12.156 0 .18 0 .288-.096 1.14-.984 2.424-2.652 3.252-5.184.528-1.644.792-3.588.792-5.52z" id="k"/><path d="M3 28.308h3.156v-.66H3.66V.18h2.496v-.66H3v28.788z" id="h"/><path d="M2.664 27.648H.168v.66h3.156V-.48H.168v.66h2.496v27.468z" id="p"/><path d="M2.512-5.096c0-.216-.016-.224-.232-.224-.328.32-.752.512-1.512.512v.264c.216 0 .648 0 1.112-.216v4.104c0 .296-.024.392-.784.392h-.28V0c.328-.024 1.016-.024 1.376-.024s1.056 0 1.384.024v-.264h-.28c-.76 0-.784-.096-.784-.392v-4.44z" id="l"/><path d="M2.256-1.632c.128-.12.464-.384.592-.496.496-.456.968-.896.968-1.624 0-.952-.8-1.568-1.8-1.568-.96 0-1.592.728-1.592 1.44 0 .392.312.448.424.448.168 0 .416-.12.416-.424 0-.416-.4-.416-.496-.416.232-.584.768-.784 1.16-.784.744 0 1.128.632 1.128 1.304 0 .832-.584 1.44-1.528 2.408L.52-.304C.424-.216.424-.2.424 0h3.16l.232-1.432h-.248c-.024.16-.088.56-.184.712-.048.064-.656.064-.784.064H1.176l1.08-.976z" id="m"/><path d="M1.104-2.648c0-.664.056-1.248.344-1.736.24-.4.648-.728 1.152-.728.16 0 .528.024.712.304-.36.016-.392.288-.392.376 0 .24.184.376.376.376.144 0 .376-.088.376-.392 0-.48-.36-.872-1.08-.872-1.112 0-2.24 1.056-2.24 2.784C.352-.368 1.36.168 2.136.168c.384 0 .8-.104 1.16-.448.32-.312.592-.648.592-1.344 0-1.048-.792-1.784-1.68-1.784-.576 0-.92.368-1.104.76zM2.136-.072c-.424 0-.688-.296-.808-.52-.184-.36-.2-.904-.2-1.208 0-.792.432-1.384 1.048-1.384.4 0 .64.208.792.488.168.296.168.656.168 1.064s0 .76-.16 1.048c-.208.368-.488.512-.84.512z" id="o"/><path d="M7.908-2.76c.204 0 .42 0 .42-.24s-.216-.24-.42-.24H1.416c-.204 0-.42 0-.42.24s.216.24.42.24h6.492z" id="n"/></defs><g fill="#f9df08"><g transform="translate(-63.986 -61.02) scale(1.12578)"><use x="56.6248" xlink:href="#a" y="71.4001"/><use x="66.0858" xlink:href="#b" y="71.4001"/><use x="70.6552" xlink:href="#c" y="71.4001"/><use x="76.2767" xlink:href="#d" y="71.4001"/><use x="84.1794" xlink:href="#e" y="71.4001"/><use x="96.6515" xlink:href="#f" y="71.4001"/><use x="102.526" xlink:href="#g" y="71.4001"/><use x="110.025" xlink:href="#h" y="54.48"/><use x="116.358" xlink:href="#i" y="58.08"/><use x="124.725" xlink:href="#j" y="63.282"/><use x="125.469" xlink:href="#c" y="79.6315"/><use x="133.034" xlink:href="#k" y="58.08"/><use x="140.201" xlink:href="#l" y="60.7667"/><use x="144.451" xlink:href="#m" y="60.7667"/><use x="151.867" xlink:href="#n" y="71.4001"/><use x="163.867" xlink:href="#i" y="58.08"/><use x="172.234" xlink:href="#j" y="63.282"/><use x="172.978" xlink:href="#c" y="79.6315"/><use x="180.543" xlink:href="#k" y="58.08"/><use x="187.71" xlink:href="#o" y="60.7667"/><use x="192.46" xlink:href="#p" y="54.48"/></g><path d="M76.427 15.7133h8.003v.5404h-8.003zM129.9116 15.7133h8.0032v.5404h-8.0032z"/></g></svg>

<?xml version='1.0' encoding='ISO-8859-1'?>
<!DOCTYPE svg PUBLIC "-//W3C//DTD SVG 1.1//EN" "http://www.w3.org/Graphics/SVG/1.1/DTD/svg11.dtd">
<!-- This file was generated by dvisvgm 1.2.2 (x86_64-unknown-linux-gnu) -->
<!-- Sat May 20 07:15:47 2017 -->
<svg height='32.4227pt' version='1.1' viewBox='0 0 160.05 32.4227' width='160.05pt' xmlns='http://www.w3.org/2000/svg' xmlns:xlink='http://www.w3.org/1999/xlink'>
<defs>
<path d='M6.096 -4.524C6.252 -4.524 6.648 -4.524 6.648 -4.908C6.648 -5.172 6.42 -5.172 6.204 -5.172H3.552C1.752 -5.172 0.456 -3.168 0.456 -1.752C0.456 -0.732 1.116 0.12 2.196 0.12C3.612 0.12 5.16 -1.404 5.16 -3.204C5.16 -3.672 5.052 -4.128 4.764 -4.524H6.096ZM2.208 -0.12C1.596 -0.12 1.152 -0.588 1.152 -1.416C1.152 -2.136 1.584 -4.524 3.348 -4.524C3.864 -4.524 4.44 -4.272 4.44 -3.348C4.44 -2.928 4.248 -1.92 3.828 -1.224C3.396 -0.516 2.748 -0.12 2.208 -0.12Z' id='g0-27'/>
<path d='M1.668 -2.736C2.052 -2.58 2.46 -2.58 2.688 -2.58C3 -2.58 3.624 -2.58 3.624 -2.928C3.624 -3.144 3.396 -3.228 2.784 -3.228C2.484 -3.228 2.124 -3.192 1.704 -3.012C1.332 -3.192 1.188 -3.468 1.188 -3.732C1.188 -4.476 2.364 -4.908 3.432 -4.908C3.636 -4.908 4.068 -4.908 4.572 -4.536C4.644 -4.488 4.68 -4.452 4.764 -4.452C4.908 -4.452 5.064 -4.608 5.064 -4.752C5.064 -4.968 4.368 -5.424 3.54 -5.424C2.196 -5.424 0.924 -4.62 0.924 -3.732C0.924 -3.288 1.212 -3.012 1.416 -2.868C0.72 -2.472 0.312 -1.824 0.312 -1.236C0.312 -0.408 1.056 0.252 2.208 0.252C3.792 0.252 4.428 -0.804 4.428 -0.972C4.428 -1.032 4.38 -1.08 4.32 -1.08S4.236 -1.044 4.188 -0.972C4.056 -0.744 3.744 -0.264 2.316 -0.264C1.572 -0.264 0.588 -0.456 0.588 -1.308C0.588 -1.716 0.888 -2.328 1.668 -2.736ZM2.04 -2.88C2.364 -2.988 2.676 -2.988 2.76 -2.988C3.096 -2.988 3.156 -2.964 3.348 -2.916C3.144 -2.82 3.12 -2.82 2.688 -2.82C2.472 -2.82 2.28 -2.82 2.04 -2.88Z' id='g0-34'/>
<path d='M7.428 -6.864C7.836 -7.512 8.208 -7.8 8.82 -7.848C8.94 -7.86 9.036 -7.86 9.036 -8.076C9.036 -8.124 9.012 -8.196 8.904 -8.196C8.688 -8.196 8.172 -8.172 7.956 -8.172C7.608 -8.172 7.248 -8.196 6.912 -8.196C6.816 -8.196 6.696 -8.196 6.696 -7.968C6.696 -7.86 6.804 -7.848 6.852 -7.848C7.296 -7.812 7.344 -7.596 7.344 -7.452C7.344 -7.272 7.176 -6.996 7.164 -6.984L3.396 -1.008L2.556 -7.476C2.556 -7.824 3.18 -7.848 3.312 -7.848C3.492 -7.848 3.6 -7.848 3.6 -8.076C3.6 -8.196 3.468 -8.196 3.432 -8.196C3.228 -8.196 2.988 -8.172 2.784 -8.172H2.112C1.236 -8.172 0.876 -8.196 0.864 -8.196C0.792 -8.196 0.648 -8.196 0.648 -7.98C0.648 -7.848 0.732 -7.848 0.924 -7.848C1.536 -7.848 1.572 -7.74 1.608 -7.44L2.568 -0.036C2.604 0.216 2.604 0.252 2.772 0.252C2.916 0.252 2.976 0.216 3.096 0.024L7.428 -6.864Z' id='g0-86'/>
<path d='M4.668 -4.908C4.296 -4.836 4.104 -4.572 4.104 -4.308C4.104 -4.02 4.332 -3.924 4.5 -3.924C4.836 -3.924 5.112 -4.212 5.112 -4.572C5.112 -4.956 4.74 -5.292 4.14 -5.292C3.66 -5.292 3.108 -5.076 2.604 -4.344C2.52 -4.98 2.04 -5.292 1.56 -5.292C1.092 -5.292 0.852 -4.932 0.708 -4.668C0.504 -4.236 0.324 -3.516 0.324 -3.456C0.324 -3.408 0.372 -3.348 0.456 -3.348C0.552 -3.348 0.564 -3.36 0.636 -3.636C0.816 -4.356 1.044 -5.052 1.524 -5.052C1.812 -5.052 1.896 -4.848 1.896 -4.5C1.896 -4.236 1.776 -3.768 1.692 -3.396L1.356 -2.1C1.308 -1.872 1.176 -1.332 1.116 -1.116C1.032 -0.804 0.9 -0.24 0.9 -0.18C0.9 -0.012 1.032 0.12 1.212 0.12C1.344 0.12 1.572 0.036 1.644 -0.204C1.68 -0.3 2.124 -2.112 2.196 -2.388C2.256 -2.652 2.328 -2.904 2.388 -3.168C2.436 -3.336 2.484 -3.528 2.52 -3.684C2.556 -3.792 2.88 -4.38 3.18 -4.644C3.324 -4.776 3.636 -5.052 4.128 -5.052C4.32 -5.052 4.512 -5.016 4.668 -4.908Z' id='g0-114'/>
<path d='M3.9 2.916C3.9 2.88 3.9 2.856 3.696 2.652C2.496 1.44 1.824 -0.54 1.824 -2.988C1.824 -5.316 2.388 -7.32 3.78 -8.736C3.9 -8.844 3.9 -8.868 3.9 -8.904C3.9 -8.976 3.84 -9 3.792 -9C3.636 -9 2.652 -8.136 2.064 -6.96C1.452 -5.748 1.176 -4.464 1.176 -2.988C1.176 -1.92 1.344 -0.492 1.968 0.792C2.676 2.232 3.66 3.012 3.792 3.012C3.84 3.012 3.9 2.988 3.9 2.916Z' id='g1-40'/>
<path d='M3.384 -2.988C3.384 -3.9 3.264 -5.388 2.592 -6.78C1.884 -8.22 0.9 -9 0.768 -9C0.72 -9 0.66 -8.976 0.66 -8.904C0.66 -8.868 0.66 -8.844 0.864 -8.64C2.064 -7.428 2.736 -5.448 2.736 -3C2.736 -0.672 2.172 1.332 0.78 2.748C0.66 2.856 0.66 2.88 0.66 2.916C0.66 2.988 0.72 3.012 0.768 3.012C0.924 3.012 1.908 2.148 2.496 0.972C3.108 -0.252 3.384 -1.548 3.384 -2.988Z' id='g1-41'/>
<path d='M4.332 -7.812C4.332 -8.04 4.332 -8.1 4.164 -8.1C4.068 -8.1 4.032 -8.1 3.936 -7.956L0.324 -2.352V-2.004H3.48V-0.912C3.48 -0.468 3.456 -0.348 2.58 -0.348H2.34V0C2.616 -0.024 3.564 -0.024 3.9 -0.024S5.196 -0.024 5.472 0V-0.348H5.232C4.368 -0.348 4.332 -0.468 4.332 -0.912V-2.004H5.544V-2.352H4.332V-7.812ZM3.54 -6.876V-2.352H0.624L3.54 -6.876Z' id='g1-52'/>
<path d='M8.1 -3.888C8.268 -3.888 8.484 -3.888 8.484 -4.104C8.484 -4.332 8.28 -4.332 8.1 -4.332H1.032C0.864 -4.332 0.648 -4.332 0.648 -4.116C0.648 -3.888 0.852 -3.888 1.032 -3.888H8.1ZM8.1 -1.656C8.268 -1.656 8.484 -1.656 8.484 -1.872C8.484 -2.1 8.28 -2.1 8.1 -2.1H1.032C0.864 -2.1 0.648 -2.1 0.648 -1.884C0.648 -1.656 0.852 -1.656 1.032 -1.656H8.1Z' id='g1-61'/>
<path d='M6.18 20.976C6.204 20.988 6.312 21.108 6.324 21.108H6.588C6.624 21.108 6.72 21.096 6.72 20.988C6.72 20.94 6.696 20.916 6.672 20.88C6.24 20.448 5.592 19.788 4.848 18.468C3.552 16.164 3.072 13.2 3.072 10.32C3.072 4.992 4.584 1.86 6.684 -0.264C6.72 -0.3 6.72 -0.336 6.72 -0.36C6.72 -0.48 6.636 -0.48 6.492 -0.48C6.336 -0.48 6.312 -0.48 6.204 -0.384C5.064 0.6 3.78 2.268 2.952 4.8C2.436 6.384 2.16 8.316 2.16 10.308C2.16 13.152 2.676 16.368 4.56 19.152C4.884 19.62 5.328 20.112 5.328 20.124C5.448 20.268 5.616 20.46 5.712 20.544L6.18 20.976Z' id='g2-16'/>
<path d='M4.992 10.308C4.992 6.864 4.188 3.204 1.824 0.504C1.656 0.312 1.212 -0.156 0.924 -0.408C0.84 -0.48 0.816 -0.48 0.66 -0.48C0.54 -0.48 0.432 -0.48 0.432 -0.36C0.432 -0.312 0.48 -0.264 0.504 -0.24C0.912 0.18 1.56 0.84 2.304 2.16C3.6 4.464 4.08 7.428 4.08 10.308C4.08 15.516 2.64 18.696 0.48 20.892C0.456 20.916 0.432 20.952 0.432 20.988C0.432 21.108 0.54 21.108 0.66 21.108C0.816 21.108 0.84 21.108 0.948 21.012C2.088 20.028 3.372 18.36 4.2 15.828C4.728 14.184 4.992 12.24 4.992 10.308Z' id='g2-17'/>
<path d='M3 28.308H6.156V27.648H3.66V0.18H6.156V-0.48H3V28.308Z' id='g2-20'/>
<path d='M2.664 27.648H0.168V28.308H3.324V-0.48H0.168V0.18H2.664V27.648Z' id='g2-21'/>
<path d='M2.512 -5.096C2.512 -5.312 2.496 -5.32 2.28 -5.32C1.952 -5 1.528 -4.808 0.768 -4.808V-4.544C0.984 -4.544 1.416 -4.544 1.88 -4.76V-0.656C1.88 -0.36 1.856 -0.264 1.096 -0.264H0.816V0C1.144 -0.024 1.832 -0.024 2.192 -0.024S3.248 -0.024 3.576 0V-0.264H3.296C2.536 -0.264 2.512 -0.36 2.512 -0.656V-5.096Z' id='g3-49'/>
<path d='M2.256 -1.632C2.384 -1.752 2.72 -2.016 2.848 -2.128C3.344 -2.584 3.816 -3.024 3.816 -3.752C3.816 -4.704 3.016 -5.32 2.016 -5.32C1.056 -5.32 0.424 -4.592 0.424 -3.88C0.424 -3.488 0.736 -3.432 0.848 -3.432C1.016 -3.432 1.264 -3.552 1.264 -3.856C1.264 -4.272 0.864 -4.272 0.768 -4.272C1 -4.856 1.536 -5.056 1.928 -5.056C2.672 -5.056 3.056 -4.424 3.056 -3.752C3.056 -2.92 2.472 -2.312 1.528 -1.344L0.52 -0.304C0.424 -0.216 0.424 -0.2 0.424 0H3.584L3.816 -1.432H3.568C3.544 -1.272 3.48 -0.872 3.384 -0.72C3.336 -0.656 2.728 -0.656 2.6 -0.656H1.176L2.256 -1.632Z' id='g3-50'/>
<path d='M1.104 -2.648C1.104 -3.312 1.16 -3.896 1.448 -4.384C1.688 -4.784 2.096 -5.112 2.6 -5.112C2.76 -5.112 3.128 -5.088 3.312 -4.808C2.952 -4.792 2.92 -4.52 2.92 -4.432C2.92 -4.192 3.104 -4.056 3.296 -4.056C3.44 -4.056 3.672 -4.144 3.672 -4.448C3.672 -4.928 3.312 -5.32 2.592 -5.32C1.48 -5.32 0.352 -4.264 0.352 -2.536C0.352 -0.368 1.36 0.168 2.136 0.168C2.52 0.168 2.936 0.064 3.296 -0.28C3.616 -0.592 3.888 -0.928 3.888 -1.624C3.888 -2.672 3.096 -3.408 2.208 -3.408C1.632 -3.408 1.288 -3.04 1.104 -2.648ZM2.136 -0.072C1.712 -0.072 1.448 -0.368 1.328 -0.592C1.144 -0.952 1.128 -1.496 1.128 -1.8C1.128 -2.592 1.56 -3.184 2.176 -3.184C2.576 -3.184 2.816 -2.976 2.968 -2.696C3.136 -2.4 3.136 -2.04 3.136 -1.632S3.136 -0.872 2.976 -0.584C2.768 -0.216 2.488 -0.072 2.136 -0.072Z' id='g3-54'/>
<path d='M7.908 -2.76C8.112 -2.76 8.328 -2.76 8.328 -3S8.112 -3.24 7.908 -3.24H1.416C1.212 -3.24 0.996 -3.24 0.996 -3S1.212 -2.76 1.416 -2.76H7.908Z' id='g4-0'/>
</defs>
<g id='page1' transform='matrix(1.12578 0 0 1.12578 -63.986 -61.02)'>
<g fill='#f9df08'>
<use x='56.6248' xlink:href='#g0-86' y='71.4001'/>
<use x='66.0858' xlink:href='#g1-40' y='71.4001'/>
<use x='70.6552' xlink:href='#g0-114' y='71.4001'/>
<use x='76.2767' xlink:href='#g1-41' y='71.4001'/>
<use x='84.1794' xlink:href='#g1-61' y='71.4001'/>
<use x='96.6515' xlink:href='#g1-52' y='71.4001'/>
<use x='102.526' xlink:href='#g0-34' y='71.4001'/>
<use x='110.025' xlink:href='#g2-20' y='54.48'/>
<use x='116.358' xlink:href='#g2-16' y='58.08'/>
<use x='124.725' xlink:href='#g0-27' y='63.282'/>
<use x='125.469' xlink:href='#g0-114' y='79.6315'/>
<use x='133.034' xlink:href='#g2-17' y='58.08'/>
<use x='140.201' xlink:href='#g3-49' y='60.7667'/>
<use x='144.451' xlink:href='#g3-50' y='60.7667'/>
<use x='151.867' xlink:href='#g4-0' y='71.4001'/>
<use x='163.867' xlink:href='#g2-16' y='58.08'/>
<use x='172.234' xlink:href='#g0-27' y='63.282'/>
<use x='172.978' xlink:href='#g0-114' y='79.6315'/>
<use x='180.543' xlink:href='#g2-17' y='58.08'/>
<use x='187.71' xlink:href='#g3-54' y='60.7667'/>
<use x='192.46' xlink:href='#g2-21' y='54.48'/>
</g>
<rect fill='#f9df08' height='0.47998' width='7.10896' x='124.725' y='68.1601'/>
<rect fill='#f9df08' height='0.47998' width='7.10896' x='172.234' y='68.1601'/>
</g>
</svg>
